X: 1
T: Lady Carmichael
S: Athole, arr. T. Traub 12-19-97
R: strathspey
M: 4/4
L: 1/8
K: C
|: G|"C"c>de>c "F"A<c "C"G2|"F"A/B/c "C"G>e "Dm"d>c "G"d<e|"C"c>de>c "F"A<c "C"G2|"F"A/B/c "Dm"G>e "G"d2 "C"c :|
G|"C"c>de>f g<c e2|"F"f>d"C"e>c "Dm"d>c "G"A<d|"C"c>de>f "C"g<c e2|"F"f>d"C"e>c "G"d2 "C"cG|
"C"c>de>f g<c e2|"F"f<a"C"e<g "Dm"d>c "G"d<e|"C"c>e"Dm"d>f "C"e>g"F"f>a|"C"g<c"F"f>e "G"d2 "C"c |]
